other/egg_inc.svg

<?xml version="1.0" encoding="UTF-8" standalone="no"?>
<svg
   viewBox="0 0 48 48"
   version="1.1"
   id="svg8"
   sodipodi:docname="egg_inc.svg"
   inkscape:version="1.1.1 (1:1.1+202109281949+c3084ef5ed)"
   xmlns:inkscape="http://www.inkscape.org/namespaces/inkscape"
   xmlns:sodipodi="http://sodipodi.sourceforge.net/DTD/sodipodi-0.dtd"
   xmlns="http://www.w3.org/2000/svg"
   xmlns:svg="http://www.w3.org/2000/svg">
  <sodipodi:namedview
     id="namedview10"
     pagecolor="#505050"
     bordercolor="#ffffff"
     borderopacity="1"
     inkscape:pageshadow="0"
     inkscape:pageopacity="0"
     inkscape:pagecheckerboard="1"
     showgrid="false"
     inkscape:object-paths="true"
     inkscape:zoom="4"
     inkscape:cx="9"
     inkscape:cy="1"
     inkscape:window-width="1920"
     inkscape:window-height="1047"
     inkscape:window-x="0"
     inkscape:window-y="0"
     inkscape:window-maximized="1"
     inkscape:current-layer="svg8" />
  <defs
     id="defs4">
    <style
       id="style2">.a{fill:none;stroke:#fff;stroke-linecap:round;stroke-linejoin:round;}</style>
  </defs>
  <circle
     style="fill:none;stroke:#ffffff;stroke-width:1;stroke-linecap:round;stroke-linejoin:round;stop-color:#000000"
     id="path941"
     cx="24"
     cy="24"
     r="21.5" />
  <path
     style="fill:none;stroke:#ffffff;stroke-width:1px;stroke-linecap:round;stroke-linejoin:round;stroke-opacity:1;opacity:1"
     d="M 33.755906,43.159131 31.46693,38.150918 31.370906,31.124789"
     id="path1056" />
  <path
     style="fill:none;stroke:#ffffff;stroke-width:1px;stroke-linecap:round;stroke-linejoin:round;stroke-opacity:1;opacity:1"
     d="m 31.898489,30.934593 1.854288,-0.611078 1.158818,-2.682425 -1.102637,-2.665638 -3.641017,2.247938 -0.668158,2.214982 0.544418,2.107299 z"
     id="path1171"
     sodipodi:nodetypes="cccccccc" />
  <path
     style="opacity:1;fill:none;stroke:#ffffff;stroke-width:1px;stroke-linecap:round;stroke-linejoin:round;stroke-opacity:1"
     d="m 33.808958,24.975452 c 1.038274,-0.333455 2.088835,-0.331252 3.145841,-0.152997 l -3.077075,-4.494248 z"
     id="path2347"
     sodipodi:nodetypes="cccc" />
  <path
     style="opacity:1;fill:none;stroke:#ffffff;stroke-width:1px;stroke-linecap:round;stroke-linejoin:round;stroke-opacity:1"
     d="M 33.877724,20.328207 30.244215,13.929074 24.885339,11.649507 20.25212,10.482936 c 0.3434,0.840553 2.349564,5.751127 2.349564,5.751127 l 7.269583,0.367642 z"
     id="path2552"
     sodipodi:nodetypes="ccccccc" />
  <path
     style="fill:none;stroke:#ffffff;stroke-width:1px;stroke-linecap:round;stroke-linejoin:round;stroke-opacity:1;opacity:1"
     d="m 22.601684,16.234063 -7.51435,4.483598 -5.4861383,9.325168 -4.6599904,3.907666"
     id="path2747" />
  <circle
     style="fill:none;stroke:#ffffff;stroke-linecap:round;stroke-linejoin:round;stop-color:#000000;opacity:1"
     id="path2884"
     cx="24.399689"
     cy="21.148767"
     r="1.9182937" />
  <circle
     style="fill:#ffffff;stroke:none;stroke-width:1;stroke-linecap:round;stroke-linejoin:round;stop-color:#000000;opacity:1"
     id="path2988"
     cx="23.85811"
     cy="21.247009"
     r="0.75" />
</svg>

<svg xmlns="http://www.w3.org/2000/svg" viewBox="0 0 48 48"><defs><style>.a{fill:none;stroke:#fff;stroke-linecap:round;stroke-linejoin:round;}.b{fill:#fff;}</style></defs><circle class="a" cx="24" cy="24" r="21.5"/><path class="a" d="M33.7559,43.1591l-2.289-5.0082-.096-7.0261"/><path class="a" d="M31.8985,30.9346l1.8543-.6111,1.1588-2.6824L33.809,24.9755l-3.6411,2.2479L29.5,29.4384l.5444,2.1073Z"/><path class="a" d="M33.809,24.9755a6.5526,6.5526,0,0,1,3.1458-.153l-3.0771-4.4943Z"/><path class="a" d="M33.8777,20.3282l-3.6335-6.3991-5.3589-2.28-4.6332-1.1666,2.35,5.7512,7.27.3676Z"/><path class="a" d="M22.6017,16.2341l-7.5144,4.4836L9.6012,30.0428l-4.66,3.9077"/><circle class="a" cx="24.3997" cy="21.1488" r="1.9183"/><circle class="b" cx="24" cy="21.247" r="0.75"/></svg>
